static/img/logos/e_and_r/ntnu.svg

<svg xmlns="http://www.w3.org/2000/svg" xmlns:xlink="http://www.w3.org/1999/xlink" width="600" height="300" viewBox="0 0 600 300">
  <defs>
    <clipPath id="clip-Logo">
      <rect width="600" height="300"/>
    </clipPath>
  </defs>
  <g id="Logo" clip-path="url(#clip-Logo)">
    <rect width="600" height="300" fill="#e8eff3"/>
    <g id="NTNU_Hjemmeside" data-name="NTNU Hjemmeside" transform="translate(98.909 111.073)">
      <g id="Group_64" data-name="Group 64" transform="translate(1.091 0.914)">
        <path id="Path_737" data-name="Path 737" d="M57.247.914H19.8A18.71,18.71,0,0,0,1.091,19.624V57.07A18.713,18.713,0,0,0,19.8,75.783H57.247A18.716,18.716,0,0,0,75.96,57.07V19.624A18.713,18.713,0,0,0,57.247.914ZM19.8,19.624H57.247V57.073H19.8V19.624Z" transform="translate(-1.091 -0.914)" fill="#00509e"/>
        <path id="Path_738" data-name="Path 738" d="M25.677,10.142A15.358,15.358,0,1,0,41.031,25.5,15.358,15.358,0,0,0,25.677,10.142" transform="translate(11.633 11.81)" fill="#00509e"/>
        <path id="Path_739" data-name="Path 739" d="M63.481.946,99.947,53.952V13.169L99.84,3.475H88.881V.946h23.5V3.475h-9.064l-.107,9.694V76.293l-1.684.53L52.629,5.687v57.12l.1,10.008H64.009v2.531H39.666V72.815h9.7l.1-10.008V13.169l-.1-9.694h-9.7V.946H63.481" transform="translate(52.1 -0.87)"/>
        <path id="Path_740" data-name="Path 740" d="M139.037.946V24.759h-3.162a29.269,29.269,0,0,0-4.006-13.8C128.082,4.529,122.915,4.212,117.858,4h-5.907l-.1,9.485V62.069l.1,10.748h11.383v2.531H88.771V72.817h11.381l.107-10.748V13.485L100.152,4H95.306c-6.111.1-10.75.1-15.175,7.168a26.042,26.042,0,0,0-4.008,13.591H73.068V.946h65.969" transform="translate(98.158 -0.87)"/>
        <path id="Path_741" data-name="Path 741" d="M127.184.946,163.65,53.952V13.169l-.109-9.694H152.584V.946h23.5V3.475h-9.068l-.1,9.694V76.293l-1.684.53-48.9-71.136v57.12l.1,10.008h11.278v2.531H103.369V72.815h9.7l.1-10.008V13.169l-.1-9.694h-9.7V.946h23.815" transform="translate(139.939 -0.87)"/>
        <path id="Path_742" data-name="Path 742" d="M169.34.946V3.475H158.909l-.107,8.954V52.687c.107,10.429.316,20.337,19.921,20.337,19.809,0,21.072-8.64,21.389-18.02V12.429l-.1-8.954H189.361V.946H212.65V3.475h-9.163l-.107,8.954V50.791c-.112,13.8-.214,25.606-27.512,25.606-3.892,0-13.167-.416-19.072-2.843-9.378-4.006-9.587-12.225-9.694-22.34V12.429L147,3.475h-9.064V.946H169.34" transform="translate(187.601 -0.87)"/>
      </g>
    </g>
  </g>
</svg>

<svg xmlns="http://www.w3.org/2000/svg" xmlns:xlink="http://www.w3.org/1999/xlink" width="600" height="300" viewBox="0 0 600 300"><defs><clipPath id="clip-Logo"><path d="M0 0h600v300H0z"/></clipPath></defs><g id="Logo" clip-path="url(#clip-Logo)"><path fill="#e8eff3" d="M0 0h600v300H0z"/><g id="NTNU_Hjemmeside" transform="translate(98.909 111.073)"><g id="Group_64" transform="translate(1.091 .914)"><path id="Path_737" fill="#00509e" d="M57.25.91H19.8A18.7 18.7 0 0 0 1.1 19.62v37.45a18.7 18.7 0 0 0 18.7 18.71h37.45a18.7 18.7 0 0 0 18.71-18.71V19.62A18.7 18.7 0 0 0 57.25.92M19.8 19.62h37.45v37.45H19.8z" transform="translate(-1.091 -.914)"/><path id="Path_738" fill="#00509e" d="M25.68 10.14A15.36 15.36 0 1 0 41.03 25.5a15.36 15.36 0 0 0-15.35-15.36" transform="translate(11.633 11.81)"/><path id="Path_739" d="m63.48.95 36.47 53V13.17l-.11-9.7H88.88V.95h23.5v2.53h-9.06l-.11 9.69v63.12l-1.68.53L52.63 5.7v57.1l.1 10H64v2.54H39.67v-2.53h9.7l.1-10.01V13.17l-.1-9.7h-9.7V.95z" transform="translate(52.1 -.87)"/><path id="Path_740" d="M139.04.95v23.8h-3.16a29 29 0 0 0-4.01-13.8c-3.79-6.42-8.95-6.74-14.01-6.95h-5.9l-.1 9.49v48.58l.1 10.75h11.37v2.53H88.77v-2.53h11.38l.1-10.75V13.49l-.1-9.49h-4.84c-6.12.1-10.75.1-15.18 7.17a26 26 0 0 0-4 13.59h-3.06V.95z" transform="translate(98.158 -.87)"/><path id="Path_741" d="m127.18.95 36.47 53V13.17l-.1-9.7h-10.97V.95h23.5v2.53h-9.06l-.1 9.69v63.12l-1.69.53-48.9-71.13V62.8l.1 10h11.28v2.54h-24.34v-2.53h9.7l.1-10.01V13.17l-.1-9.7h-9.7V.95z" transform="translate(139.939 -.87)"/><path id="Path_742" d="M169.34.95v2.53h-10.43l-.1 8.95v40.26c.1 10.43.3 20.33 19.91 20.33 19.81 0 21.07-8.64 21.4-18.02V12.43l-.1-8.95h-10.66V.95h23.29v2.53h-9.16l-.11 8.95v38.36c-.11 13.8-.21 25.6-27.51 25.6-3.9 0-13.17-.4-19.07-2.84-9.38-4-9.6-12.22-9.7-22.34V12.43l-.1-8.95h-9.06V.94z" transform="translate(187.601 -.87)"/></g></g></g></svg>
